!! 00000 TT[00
!!!OTL: Eryuan xishan baizu duichang
!!!ARE: Yunnan
!! Ethnic Group: Bai
!! Zhongguo Minge xuan S.279
!!!SCT: C1163
!!!YEM: Copyright 1995, estate of Helmut Schaffrath.
**kern
*ICvox
*Ivox
*M2/4
*k[b-]
*F:
{8a
8a
8cc
8cc
=1
8a
8cc
[4dd
=2
2dd]}
=3
{4.ee
8r
=4
8a
8a
8dd
8dd
=5
8dd
8dd
16cc
16a
8cc}
=6
{8f
8g
8a
16a
16cc
=7
4g
8d
8d
=8
4d
4r}
=9
{8a
8a
8cc
8cc
=10
8a
8cc
8ff
8dd
=11
[2dd
=12
4dd]
16cc
16a
8cc}
=13
{8cc
16dd
16cc
8a
8a
=14
8f
8a
[4g
=15
4g]
4r}
=16
{8d
8d
8dd
8dd
=17
8ff
8dd
16cc
16a
8cc}
=18
{8f
8g
8a
8cc
=19
4g
8d
8d
=20
4d
4r}
=21
{8a
8a
8cc
8cc
=22
8a
8cc
[4dd
=23
2dd]}
=24
{4.ee
8r
=25
8a
8a
8dd
8dd
=26
8dd
8dd
16cc
16a
8cc}
=27
{8f
8g
8a
16a
16cc
=28
4g
8d
8d
=29
4d
4r}
=30
{8a
8a
8cc
8cc
=31
8a
8cc
8ff
8dd
=32
[2dd
=33
4dd]
16cc
16a
8cc}
=34
{8cc
16dd
16cc
8a
8a
=35
8f
8a
[4g
=36
4.g]}
{16dd
16dd
=37
8ff
8ff
8dd
8dd
=38
8ff
8dd
16cc
16a
8cc}
=39
{8f
8g
8a
8cc
=40
4g
8d
8d
=41
4d
4r}
==
!!!AGN: Xiaodiao
!!!ONB: ESAC (Essen Associative Code) Database: CHINA_099
!!!AMT: simple duple
!!!AIN: vox
!!!EED: Helmut Schaffrath
!!!EEV: 1.0
*-
!!!ONB: Tied note syntax fixed by Craig Sapp, 2004/05/03/
